X: 7131
T: Christmas, The
R: polka
M: 2/4
K: Gmajor
|:BG dB|ce e/d/c|Bd GA/B/|cB AG/A/|
BG dG|ce- ed/c/|Bd G>B|AG G2:|
|:Bd dB|cd ed|Bd G>A|BA AG/A/|
B/A/B/c/ dG|c/B/c/d/ ed/c/|Bd A/B/c/A/|BG G2:|

